X: 1
T: Hoppy, The
M: 4/4
L: 1/8
R: hornpipe
K: Gmaj
|: G2 ^cd cd cd | de cA F2 z2 | de cA F2 z2 | de BG D2z2 |
G2 ^cd cd cd | de cA F2 z2 | de cA F2 B2 |1 G4 B2 A2 :|2 G4 g2 f2 ||
|: e3^d ef ge | d2 dc Bc dB | A2 d^c de fg | a4 f2 d2 |
B3/2c/ BA cd gf | fe ^df e2 fe | (3d^de fe =d^c =cA |1 (3GAG FA G2 gf :|2 (3GAG FA G4 ||
